X: 34
T: Bati Elecha
C: Nurit Hirsh 2011
O: Israel
M: 2/4
L: 1/8
K: Am clef=treble
Q:1/4=144
%%MIDI program 111 % Shanai
%%MIDI drum dd3dd3 39 45 39 35
%%MIDI drumon
%%MIDI gchord fz3
.A2.A2 |GABA  |z2.A2       |GABA       |\
.A2.A2 |GABA  |.d2.c2      |BcBG       |
%%MIDI program 66 % Tenor Sax
%%MIDI drum dd 44 50
"A"z2EE|EEDE  |"D"F3F      |F4         |\
z2DD   |DDCD  |F3E         |"E"E4      |
"A"z2AA|AAGA  |"E"AG3-     |G4         |\
"A"zCCC|ED2C  |"Bm"B,4-    |B,4        |
"A"zCCC|CB,2A,|"Bm"B,B,B,B,|"E"B,A,2^G,|"A"A,4|



